X:13745
T:Quadrils (1). TLY.070
M:6/8
L:1/8
S:Wm.Tildesley,Swinton,Lancs.1860s.
R:Quadrille
O:England.
A:Lancashire.
N:DC at end of B part, also at end of C part. DC at end of B part looks
N:to be a different hand to Tillasley'
H:1860.
Z:Taz Tarry.
K:C
G|c3 e3| c3-c2 G/-F/|E2 E EDE| G2F E2G| d3 f3| d3 dcB| BAG GAB| d3-c
2||!
G| f2 d dcd| e2c cBc| d2 B GAB| c2 e c2 G| f2 d dcd| e2c cBc| d2B GAB| 
c3-c2||!
e/2c/2| A2 A Ae[cA] |B2B Bdf| e2e dcd| e2e ecA| A2A Aec| B2B Bdf| e2 e ^
g2g| a3a2|]
